icons/1_Primary/Standard Notes.svg

<svg xmlns="http://www.w3.org/2000/svg" width="1024" height="1024" fill="none">
   <g clip-path="url(#a)">
      <path fill="#728DBE" d="M512 1024c282.77 0 512-229.23 512-512S794.77 0 512 0 0 229.23 0 512s229.23 512 512 512Z"/>
      <path fill="#fff" d="M562.08 611.1v-111c0-27.86-23.17-50.45-51.74-50.45s-51.74 22.59-51.74 50.45v111h-41.4v-111c0-50.15 41.7-90.81 93.14-90.81s93.14 40.66 93.14 90.81v111h-41.4ZM654.2 275H369.8a94.802 94.802 0 0 0-94.8 94.8v284.4a94.802 94.802 0 0 0 94.8 94.8h284.4a94.802 94.802 0 0 0 94.8-94.8V369.8a94.802 94.802 0 0 0-94.8-94.8Zm53.33 379.2a53.33 53.33 0 0 1-53.33 53.32H369.8a53.326 53.326 0 0 1-37.709-15.614A53.306 53.306 0 0 1 316.47 654.2V369.8a53.306 53.306 0 0 1 15.621-37.706A53.308 53.308 0 0 1 369.8 316.48h284.4a53.33 53.33 0 0 1 53.33 53.32v284.4Z"/>
   </g>
   <defs>
      <clipPath id="a">
         <path fill="#fff" d="M0 0h1024v1024H0z"/>
      </clipPath>
   </defs>
</svg>

<svg width="1024" height="1024" viewBox="0 0 1024 1024" fill="none" xmlns="http://www.w3.org/2000/svg">
<g clip-path="url(#clip0_2_3552)">
<path d="M512 1024C794.77 1024 1024 794.77 1024 512C1024 229.23 794.77 0 512 0C229.23 0 0 229.23 0 512C0 794.77 229.23 1024 512 1024Z" fill="#728DBE"/>
<path d="M562.08 611.1V500.1C562.08 472.24 538.91 449.65 510.34 449.65C481.77 449.65 458.6 472.24 458.6 500.1V611.1H417.2V500.1C417.2 449.95 458.9 409.29 510.34 409.29C561.78 409.29 603.48 449.95 603.48 500.1V611.1H562.08ZM654.2 275H369.8C344.657 275 320.545 284.988 302.766 302.766C284.988 320.545 275 344.657 275 369.8V654.2C275 679.343 284.988 703.455 302.766 721.234C320.545 739.012 344.657 749 369.8 749H654.2C679.343 749 703.455 739.012 721.234 721.234C739.012 703.455 749 679.343 749 654.2V369.8C749 344.657 739.012 320.545 721.234 302.766C703.455 284.988 679.343 275 654.2 275ZM707.53 654.2C707.527 668.342 701.908 681.904 691.906 691.904C681.905 701.903 668.342 707.52 654.2 707.52H369.8C362.797 707.521 355.862 706.143 349.392 703.464C342.922 700.785 337.043 696.858 332.091 691.906C327.138 686.955 323.21 681.077 320.53 674.607C317.849 668.137 316.47 661.203 316.47 654.2V369.8C316.47 362.797 317.849 355.863 320.53 349.393C323.21 342.923 327.138 337.045 332.091 332.094C337.043 327.142 342.922 323.215 349.392 320.536C355.862 317.857 362.797 316.479 369.8 316.48H654.2C668.342 316.48 681.905 322.097 691.906 332.096C701.908 342.096 707.527 355.658 707.53 369.8V654.2Z" fill="white"/>
</g>
<defs>
<clipPath id="clip0_2_3552">
<rect width="1024" height="1024" fill="white"/>
</clipPath>
</defs>
</svg>
